!!!OTL: ADE DU LIEBES STAEDTCHEN
!!!ARE: Europa, Mitteleuropa, Deutschland
!!!SCT: E1594
!!!YEM: Copyright 1995, estate of Helmut Schaffrath.
**kern
*ICvox
*Ivox
*M4/4
*k[f#c#]
*D:
{4A
=1
4d
4D
4F#
4A
=2
4.d
8B
4A}
{4A
=3
4B
4B
8B
8c#
8d
8B
=4
8A
8G
8F#
8G
4A}
{4d
=5
4D
4E
4F#
4G
=6
8A
8G#
8A
8B
4A}
{4d
=7
2B
4r
4e
=8
2c#
4r
4g
=9
4f#
8g
8e
4d
4c#
=10
2d}
{2d
=11
8B
8B
8B
8B
4B
4e
=12
8c#
8A
8A
8A
4A}
{4g
=13
4f#
8g
8e
4d
4c#
=14
2d
4r}
==
!!!AGN: Staende -, Handwerker -, Gesellen - Lied; Abschied, Wanderschaft
!!!ONB: ESAC (Essen Associative Code) Database: ERK3
!!!AMT: simple quadruple
!!!AIN: vox
!!!EED: Helmut Schaffrath
!!!EEV: 1.0
*-
